main/rsc/climacons/Tornado.svg

<svg width="100" height="100" xmlns="http://www.w3.org/2000/svg">

 <g>
  <title>background</title>
  <rect fill="none" id="canvas_background" height="402" width="582" y="-1" x="-1"/>
 </g>
 <g>
  <title>Layer 1</title>
  <path fill="#ffffff" id="svg_1" d="m68.866,36.459l-37.995,0c-1.104,0 -2,-0.896 -2,-1.999c0,-1.104 0.896,-2 2,-2l37.995,0c1.104,0 2,0.896 2,2c0,1.103 -0.895,1.999 -2,1.999zm-35.995,4l29.996,0c1.104,0 2,0.896 2,2c0,1.104 -0.896,1.999 -2,1.999l-29.996,0c-1.104,0 -2,-0.896 -2,-1.999c0,-1.105 0.896,-2 2,-2zm11.998,7.999l21.998,0c1.104,0 1.999,0.896 1.999,1.999c0,1.104 -0.895,2 -1.999,2l-21.998,0c-1.104,0 -1.999,-0.896 -1.999,-2c0,-1.103 0.895,-1.999 1.999,-1.999zm2,15.998l5.999,0c1.104,0 2,0.896 2,1.999c0,1.104 -0.896,2 -2,2l-5.999,0c-1.104,0 -2,-0.896 -2,-2c0,-1.103 0.896,-1.999 2,-1.999zm1,-6c0,-1.104 0.896,-1.999 2,-1.999l13.998,0c1.104,0 2,0.896 2,1.999c0,1.104 -0.896,2 -2,2l-13.998,0c-1.104,0 -2,-0.895 -2,-2z" clip-rule="evenodd" fill-rule="evenodd"/>
 </g>
</svg>

<?xml version="1.0" encoding="utf-8"?>
<!-- Generator: Adobe Illustrator 15.1.0, SVG Export Plug-In . SVG Version: 6.00 Build 0)  -->
<!DOCTYPE svg PUBLIC "-//W3C//DTD SVG 1.1//EN" "http://www.w3.org/Graphics/SVG/1.1/DTD/svg11.dtd">
<svg version="1.1" id="Layer_1" xmlns="http://www.w3.org/2000/svg" xmlns:xlink="http://www.w3.org/1999/xlink" x="0px" y="0px"
	 width="100px" height="100px" viewBox="0 0 100 100" enable-background="new 0 0 100 100" xml:space="preserve">
<path fill-rule="evenodd" clip-rule="evenodd" d="M68.866,36.459H30.871c-1.104,0-2-0.896-2-1.999c0-1.104,0.896-2,2-2h37.995
	c1.104,0,2,0.896,2,2C70.866,35.563,69.971,36.459,68.866,36.459z M32.871,40.459h29.996c1.104,0,2,0.896,2,2
	c0,1.104-0.896,1.999-2,1.999H32.871c-1.104,0-2-0.896-2-1.999C30.871,41.354,31.767,40.459,32.871,40.459z M44.869,48.458h21.998
	c1.104,0,1.999,0.896,1.999,1.999c0,1.104-0.895,2-1.999,2H44.869c-1.104,0-1.999-0.896-1.999-2
	C42.87,49.354,43.765,48.458,44.869,48.458z M46.869,64.456h5.999c1.104,0,2,0.896,2,1.999c0,1.104-0.896,2-2,2h-5.999
	c-1.104,0-2-0.896-2-2C44.869,65.352,45.765,64.456,46.869,64.456z M47.869,58.456c0-1.104,0.896-1.999,2-1.999h13.998
	c1.104,0,2,0.896,2,1.999c0,1.104-0.896,2-2,2H49.869C48.765,60.456,47.869,59.561,47.869,58.456z"/>
</svg>
